src/img/loyaltyIcon2.svg

<svg xmlns="http://www.w3.org/2000/svg" width="31" height="32" fill="none"><path stroke="#FF5678" stroke-width="1.3" d="M7.4 1h16.2c3.6 0 6.5 2.9 6.5 6.5v17c0 3.6-2.9 6.5-6.5 6.5H7.4C3.8 31 .9 28.1.9 24.5v-17C.9 3.9 3.8 1 7.4 1Z"/><path fill="#FF5678" d="M12 17.2c1.5 0 2.5-1 2.5-2.4v-2.3c0-1.4-1-2.4-2.5-2.4s-2.5 1-2.5 2.4v2.3c0 1.4 1.1 2.4 2.5 2.4Zm.9 5.3 7.5-10.7-1.5-1.1-7.5 10.7 1.5 1.1Zm-.9-6.9c-.4 0-.8-.3-.8-.8v-2.2c-.1-1 1.6-1 1.5 0v2.2c.1.4-.2.8-.7.8Zm7.7 7.6c1.5 0 2.6-1 2.6-2.4v-2.3c0-1.4-1.1-2.4-2.6-2.4s-2.5 1-2.5 2.4v2.3c0 1.4 1.1 2.4 2.5 2.4Zm.1-1.6c-.5 0-.8-.4-.8-.8v-2.2c0-.4.3-.8.8-.8s.8.3.8.8v2.2c-.1.5-.4.8-.8.8Z"/></svg>

<svg width="31" height="32" viewBox="0 0 31 32" fill="none" xmlns="http://www.w3.org/2000/svg">
<path d="M7.39999 1H23.6C27.2 1 30.1 3.9 30.1 7.5V24.5C30.1 28.1 27.2 31 23.6 31H7.39999C3.79999 31 0.899994 28.1 0.899994 24.5V7.5C0.899994 3.9 3.79999 1 7.39999 1Z" stroke="#FF5678" stroke-width="1.3"/>
<path d="M12 17.2C13.5 17.2 14.5 16.2 14.5 14.8V12.5C14.5 11.1 13.5 10.1 12 10.1C10.5 10.1 9.5 11.1 9.5 12.5V14.8C9.5 16.2 10.6 17.2 12 17.2ZM12.9 22.5L20.4 11.8L18.9 10.7L11.4 21.4L12.9 22.5ZM12 15.6C11.6 15.6 11.2 15.3 11.2 14.8V12.6C11.1 11.6 12.8 11.6 12.7 12.6V14.8C12.8 15.2 12.5 15.6 12 15.6ZM19.7 23.2C21.2 23.2 22.3 22.2 22.3 20.8V18.5C22.3 17.1 21.2 16.1 19.7 16.1C18.2 16.1 17.2 17.1 17.2 18.5V20.8C17.2 22.2 18.3 23.2 19.7 23.2ZM19.8 21.6C19.3 21.6 19 21.2 19 20.8V18.6C19 18.2 19.3 17.8 19.8 17.8C20.3 17.8 20.6 18.1 20.6 18.6V20.8C20.5 21.3 20.2 21.6 19.8 21.6Z" fill="#FF5678"/>
</svg>
